icons/bhi_archive.svg

<svg xmlns="http://www.w3.org/2000/svg" viewBox="0 0 512 512"><defs><style>.cls-1{fill:#231f20;stroke:#231f20;stroke-miterlimit:10;}</style></defs><title>bhi_archiveArtboard 90</title><path class="cls-1" d="M0 0h512v96h-512zM479 128h-445a1 1 0 0 0-1 1v350a1 1 0 0 0 1 1h445a1 1 0 0 0 1-1v-350a1 1 0 0 0-1-1zm-127 128h-192v-49a15 15 0 0 1 15-15h162a15 15 0 0 1 15 15z"/></svg>

<svg id="Layer_1" data-name="Layer 1" xmlns="http://www.w3.org/2000/svg" viewBox="0 0 512 512"><defs><style>.cls-1{fill:#231f20;stroke:#231f20;stroke-miterlimit:10;}</style></defs><title>bhi_archiveArtboard 90</title><rect class="cls-1" width="512" height="96"/><path class="cls-1" d="M479,128H34a1,1,0,0,0-1,1V479a1,1,0,0,0,1,1H479a1,1,0,0,0,1-1V129A1,1,0,0,0,479,128ZM352,256H160V207a15,15,0,0,1,15-15H337a15,15,0,0,1,15,15Z"/></svg>
